assets/img/braze_icons/cloud-off.svg

<svg fill="none" height="24" viewBox="0 0 24 24" width="24" xmlns="http://www.w3.org/2000/svg"><g fill="#801ed7"><path clip-rule="evenodd" d="m3.70711 2.29289c-.39053-.39052-1.02369-.39052-1.41422 0-.39052.39053-.39052 1.02369 0 1.41422l3.69899 3.69898c-.32134.53625-.57315 1.1194-.74265 1.73681-2.43533.56658-4.24923 2.7495-4.24923 5.357 0 3.0375 2.46243 5.5 5.5 5.5h11c.3372 0 .6681-.0305.9899-.089l.0057-.0011 1.7973 1.7973c.3905.3905 1.0237.3905 1.4142 0s.3905-1.0237 0-1.4142z" fill-rule="evenodd"/><path d="m21.9607 17.7181c.6539-.9048 1.0393-2.0164 1.0393-3.2181 0-2.6075-1.8139-4.79039-4.2492-5.35697-.814-2.96487-3.5272-5.14303-6.7508-5.14303-1.0961 0-2.13314.25182-3.0566.70076z"/></g></svg>

<svg width="24" height="24" viewBox="0 0 24 24" fill="none" xmlns="http://www.w3.org/2000/svg">
<path fill-rule="evenodd" clip-rule="evenodd" d="M3.70711 2.29289C3.31658 1.90237 2.68342 1.90237 2.29289 2.29289C1.90237 2.68342 1.90237 3.31658 2.29289 3.70711L5.99188 7.40609C5.67054 7.94234 5.41873 8.52549 5.24923 9.1429C2.8139 9.70948 1 11.8924 1 14.4999C1 17.5374 3.46243 19.9999 6.5 19.9999H17.5C17.8372 19.9999 18.1681 19.9694 18.4899 19.9109L18.4956 19.9098L20.2929 21.7071C20.6834 22.0976 21.3166 22.0976 21.7071 21.7071C22.0976 21.3166 22.0976 20.6834 21.7071 20.2929L3.70711 2.29289Z" fill="#801ED7"/>
<path d="M21.9607 17.7181C22.6146 16.8133 23 15.7017 23 14.5C23 11.8925 21.1861 9.70961 18.7508 9.14303C17.9368 6.17816 15.2236 4 12 4C10.9039 4 9.86686 4.25182 8.9434 4.70076L21.9607 17.7181Z" fill="#801ED7"/>
</svg>
